assets/img/Draco-laptop.svg

<svg width="299" height="302" viewBox="0 0 299 302" fill="none" xmlns="http://www.w3.org/2000/svg">
<path fill-rule="evenodd" clip-rule="evenodd" d="M97.2695 88.3418C67.9372 80.8948 2.30861 77.0952 2.83848 62.8107C3.15073 54.5572 7.24777 25.6208 15.2526 8.70159C19.151 0.466041 50.3662 -0.896096 48.4738 15.5571C46.6855 31.0783 23.3994 59.5129 39.324 63.5545L68.1264 70.858C73.6333 72.256 72.4695 53.8313 77.5885 54.5303C79.197 54.7364 89.6242 56.2509 87.6939 60.6868C87.2303 61.7353 80.5311 74.0125 86.038 75.4104C94.2984 77.5074 111.112 78.995 108.946 86.8542L105.719 98.271C105.142 100.135 104.536 102.017 103.827 103.863L104.082 103.953L125.589 109.329L125.835 109.392C126.233 107.483 126.706 105.566 127.188 103.684L130.415 92.3027C132.686 84.4884 148.043 91.1377 156.303 93.1989C161.8 94.6327 162.482 80.8321 162.643 79.7567C163.314 74.9982 173.145 78.6186 174.65 79.2011C179.381 81.0472 168.708 96.4339 174.215 97.8319L203.027 105.135C218.951 109.132 213.794 73.4837 220.465 59.1992C227.495 44.0454 253.8 60.0416 252.825 69.003C250.829 87.4456 239.105 114.446 235.008 121.741C227.931 134.359 169.124 106.587 139.754 99.1403C136.272 98.2441 134.219 104.894 132.809 111.211L132.752 111.489C143.709 114.859 154.679 118.76 165.661 123.193C176.817 127.673 182.693 137.352 181.245 148.751C176.971 182.601 167.61 215.699 153.446 247.04C151.869 250.628 149.448 253.828 146.368 256.395L147.797 259.084C148.306 260.147 148.548 261.307 148.502 262.474C148.456 263.641 148.124 264.781 147.532 265.805C146.275 268.223 144.186 270.164 141.609 271.307L122.77 279.444C125.854 282.455 127.822 284.427 128.447 288.988C128.806 291.551 125.835 297.107 124.662 298.846C123.489 300.584 111.633 300.826 109.466 300.826H34.2713C33.2112 300.811 32.1734 300.536 31.2595 300.027C30.3456 299.518 29.5869 298.793 29.0577 297.923C27.8844 296.13 27.7047 293.782 27.7047 291.202C27.7047 285.726 28.8212 268.932 46.4679 252.381L52.9493 246.305C42.661 243.079 32.5681 239.44 22.6709 235.39C11.5435 230.837 5.46892 221.204 7.08692 209.832C12.2816 173.314 21.8477 140.829 34.8958 111.543C39.6268 100.968 49.8458 95.4751 61.8815 96.7834C73.5198 98.05 85.1707 99.8691 96.8342 102.241L96.9099 102.026C99.02 95.95 100.752 89.229 97.2695 88.3418ZM113.204 261.037L114.784 260.294L113.185 260.07C113.185 260.392 113.194 260.715 113.204 261.037Z" fill="url(#paint0_linear)"/>
<path fill-rule="evenodd" clip-rule="evenodd" d="M143.775 220.612C139.923 220.659 136.144 219.619 132.917 217.626C129.69 215.632 127.162 212.775 125.654 209.418C124.146 206.061 123.726 202.354 124.448 198.77C125.169 195.186 127 191.886 129.706 189.29C132.413 186.694 135.874 184.918 139.648 184.189C143.423 183.46 147.341 183.811 150.905 185.196C154.469 186.581 157.518 188.939 159.663 191.97C161.809 195 162.955 198.566 162.955 202.215C162.975 207.06 160.969 211.715 157.375 215.163C153.78 218.61 148.891 220.57 143.775 220.612Z" fill="white"/>
<path fill-rule="evenodd" clip-rule="evenodd" d="M103.449 165.957C98.9311 164.811 94.1564 164.959 89.7277 166.382C85.2991 167.806 81.4153 170.44 78.5671 173.953C75.7189 177.467 74.0342 181.7 73.7257 186.12C73.4173 190.54 74.4991 194.947 76.8343 198.784C79.1695 202.622 82.6534 205.718 86.8458 207.681C91.0381 209.644 95.7507 210.386 100.388 209.813C105.026 209.24 109.38 207.378 112.9 204.463C116.421 201.547 118.95 197.709 120.168 193.432C120.978 190.588 121.188 187.621 120.786 184.7C120.384 181.78 119.377 178.963 117.824 176.411C116.271 173.859 114.202 171.622 111.736 169.828C109.269 168.034 106.453 166.719 103.449 165.957V165.957Z" fill="white"/>
<path fill-rule="evenodd" clip-rule="evenodd" d="M130.192 238.698C130.903 238.394 131.678 238.25 132.458 238.277C133.24 238.304 134.005 238.503 134.693 238.857L134.702 238.862C136.367 239.674 137.711 240.974 138.534 242.567L138.536 242.571L143.352 251.694L144.198 251.293L139.383 242.172C138.472 240.407 136.984 238.968 135.14 238.067C134.325 237.648 133.419 237.414 132.492 237.382C131.564 237.35 130.64 237.522 129.794 237.885L129.786 237.888L124.668 240.303L119.58 242.717C118.734 243.061 118.014 243.635 117.512 244.366C117.007 245.102 116.746 245.964 116.761 246.841L116.761 246.853L116.762 246.865C116.859 248.145 117.579 250.117 118.712 252.535C119.854 254.973 121.443 257.923 123.329 261.181L124.159 260.75C122.279 257.503 120.703 254.578 119.577 252.172C118.445 249.756 117.794 247.92 117.707 246.814C117.698 246.119 117.906 245.437 118.306 244.855C118.708 244.268 119.285 243.809 119.964 243.536L119.978 243.53L125.09 241.105L125.091 241.104L130.192 238.698Z" fill="white"/>
<path fill-rule="evenodd" clip-rule="evenodd" d="M162.955 295.655V300.889H260.376L296.71 215.28L291.572 213.327L256.638 295.655H162.955Z" fill="#00C4D1" stroke="#00C4D1" stroke-width="0.57" stroke-miterlimit="22.93"/>
<defs>
<linearGradient id="paint0_linear" x1="127.841" y1="2.7512" x2="127.841" y2="300.889" gradientUnits="userSpaceOnUse">
<stop stop-color="#00C4D1"/>
<stop offset="1" stop-color="#9D3BFF"/>
</linearGradient>
</defs>
</svg>

<svg xmlns="http://www.w3.org/2000/svg" width="299" height="302" fill="none" xmlns:v="https://vecta.io/nano"><g fill-rule="evenodd"><path d="M97.27 88.342C67.937 80.895 2.31 77.095 2.838 62.81c.312-8.253 4.41-37.2 12.414-54.11C19.15.466 50.366-.896 48.474 15.557c-1.788 15.52-25.074 43.956-9.15 47.997l28.802 7.304c5.507 1.398 4.343-17.027 9.462-16.328 1.61.206 12.036 1.72 10.105 6.157-.464 1.05-7.163 13.326-1.656 14.724 8.26 2.097 25.074 3.585 22.908 11.444L105.72 98.27c-.577 1.864-1.183 3.746-1.892 5.592l.255.1 21.753 5.44c.398-1.91.87-3.826 1.353-5.708l3.227-11.38c2.27-7.814 17.628-1.165 25.888.896 5.497 1.434 6.18-12.367 6.34-13.442.67-4.758 10.502-1.138 12.007-.556 4.73 1.846-5.942 17.233-.435 18.63l28.812 7.303c15.924 3.997 10.767-31.65 17.438-45.936 7.03-15.154 33.335.842 32.36 9.804-1.996 18.443-13.72 45.443-17.817 52.738-7.077 12.618-65.884-15.154-95.254-22.6-3.482-.896-5.535 5.754-6.945 12.07l-.057.278c10.957 3.37 21.927 7.27 32.91 11.704 11.156 4.48 17.032 14.16 15.584 25.558-4.274 33.85-13.635 66.948-27.8 98.29-1.577 3.588-3.998 6.788-7.078 9.355l1.43 2.69c.51 1.063.75 2.223.705 3.4s-.378 2.307-.97 3.33c-1.257 2.418-3.346 4.36-5.923 5.502l-18.84 8.137c3.084 3.01 5.052 4.983 5.677 9.544.36 2.563-2.612 8.12-3.785 9.858s-13.03 1.98-15.196 1.98H34.27a6.38 6.38 0 0 1-3.012-.799c-.914-.51-1.673-1.234-2.202-2.104-1.173-1.793-1.353-4.14-1.353-6.72 0-5.476 1.117-22.27 18.763-38.82l6.48-6.076C42.66 243.08 32.568 239.44 22.67 235.4c-11.127-4.553-17.202-14.186-15.584-25.558 5.195-36.518 14.76-69.003 27.81-98.29 4.73-10.575 14.95-16.068 26.986-14.76 11.638 1.267 23.29 3.086 34.953 5.458l.076-.215c2.1-6.076 3.842-12.797.36-13.684zm15.935 172.695l1.58-.743-1.6-.224a31.19 31.19 0 0 0 .019.967z" fill="url(#A)"/><path d="M143.775 220.612a20.22 20.22 0 0 1-10.858-2.986c-3.227-1.994-5.755-4.85-7.263-8.208s-1.928-7.064-1.206-10.648 2.552-6.884 5.258-9.48 6.168-4.372 9.942-5.1a20.44 20.44 0 0 1 11.257 1.007c3.564 1.385 6.613 3.743 8.758 6.774s3.292 6.596 3.292 10.245c.02 4.845-1.986 9.5-5.58 12.948s-8.484 5.407-13.6 5.45zm-40.325-54.655a24.92 24.92 0 0 0-13.721.425c-4.43 1.424-8.312 4.058-11.16 7.57s-4.533 7.747-4.84 12.167.773 8.827 3.1 12.664 5.82 6.934 10 8.897 8.905 2.705 13.542 2.132 8.992-2.435 12.512-5.35 6.05-6.754 7.268-11.03a21.26 21.26 0 0 0 .618-8.732 21.61 21.61 0 0 0-2.962-8.289c-1.553-2.552-3.622-4.8-6.088-6.583a24.21 24.21 0 0 0-8.287-3.871h0zm26.742 72.74a5.3 5.3 0 0 1 2.266-.421 5.29 5.29 0 0 1 2.235.58l.01.005c1.665.812 3 2.112 3.832 3.705l.002.004 4.816 9.123.846-.4-4.815-9.12c-.9-1.765-2.4-3.204-4.243-4.105a6.25 6.25 0 0 0-2.648-.685 6.3 6.3 0 0 0-2.698.503l-.008.003-5.118 2.415-5.088 2.414c-.846.344-1.566.918-2.068 1.65a4.24 4.24 0 0 0-.751 2.475v.012l.001.012c.097 1.28.817 3.252 1.95 5.67 1.142 2.438 2.73 5.388 4.617 8.646l.83-.43-4.582-8.578c-1.132-2.416-1.783-4.252-1.87-5.358-.01-.695.2-1.377.6-1.96s.98-1.046 1.658-1.32l.014-.006 5.113-2.426 5.1-2.406z" fill="#fff"/><path d="M162.955 295.655v5.234h97.42l36.334-85.61-5.138-1.953-34.934 82.328h-93.683z" fill="#00c4d1" stroke="#00c4d1" stroke-width=".57" stroke-miterlimit="22.93"/></g><defs><linearGradient id="A" x1="127.841" y1="2.751" x2="127.841" y2="300.889" gradientUnits="userSpaceOnUse"><stop stop-color="#00c4d1"/><stop offset="1" stop-color="#9d3bff"/></linearGradient></defs></svg>
